X: 0724
M: 2/4
L: 1/16
K: C
e2 |\
f2e2d2c2 | d2e2g3e | f2e2d2c2 | e2c2B3e |\
f2e2d2c2 | d2e2g3e | f2e2d2c2 | e2c2G4 |
c'bc'a g2ag | fefg e2ag | fedc B2g2 | c4 z2 |]

